lib/svgs/team-pen.svg

<?xml version="1.0" encoding="UTF-8" standalone="no"?>
<svg width="20px" height="20px" viewBox="0 0 20 20" version="1.1" xmlns="http://www.w3.org/2000/svg" xmlns:xlink="http://www.w3.org/1999/xlink">
    <defs></defs>
    <g id="Icons" stroke="none" stroke-width="1" fill="none" fill-rule="evenodd">
        <g id="Web" transform="translate(-193.000000, -2442.000000)" fill="#000000">
            <g id="team/team-pen" transform="translate(193.000000, 2442.000000)">
                <path d="M8.775625,6.64703125 L5.06125,8.03953125 C4.849375,8.11890625 4.6975,8.30640625 4.663125,8.53015625 L3,16.8970312 L6.718125,13.1789062 C6.60125,12.9345312 6.530625,12.6639062 6.530625,12.3751562 C6.530625,11.3395312 7.37,10.5001562 8.405625,10.5001562 C9.44125,10.5001562 10.280625,11.3395312 10.280625,12.3751562 C10.280625,13.4107812 9.44125,14.2501562 8.405625,14.2501562 C8.116875,14.2501562 7.84625,14.1795312 7.601875,14.0626562 L3.88375,17.7807812 L12.250625,16.1176562 C12.47375,16.0832812 12.66125,15.9307812 12.740625,15.7195312 L14.13375,12.0045312 L8.775625,6.64703125 L8.775625,6.64703125 M17.5975,9.43328125 L11.3475,3.18328125 C11.103125,2.93890625 10.708125,2.93890625 10.46375,3.18328125 L9.21375,4.43328125 C8.969375,4.67765625 8.969375,5.07265625 9.21375,5.31703125 L15.46375,11.5670313 C15.585625,11.6889063 15.745625,11.7501563 15.905625,11.7501563 C16.065625,11.7501563 16.225625,11.6889063 16.3475,11.5670313 L17.5975,10.3170313 C17.841875,10.0726563 17.841875,9.67765625 17.5975,9.43328125 L17.5975,9.43328125" id="Shape"></path>
            </g>
        </g>
    </g>
</svg>

<svg xmlns="http://www.w3.org/2000/svg" viewBox="0 0 20 20">
    <path fill="#000" fill-rule="evenodd" d="M8.776 6.647L5.06 8.04a.625.625 0 0 0-.398.49L3 16.897l3.718-3.718a1.875 1.875 0 1 1 .884.884L3.884 17.78l8.367-1.663a.626.626 0 0 0 .49-.398l1.393-3.715-5.358-5.358m8.822 2.786l-6.25-6.25a.624.624 0 0 0-.884 0l-1.25 1.25a.624.624 0 0 0 0 .884l6.25 6.25a.623.623 0 0 0 .883 0l1.25-1.25a.624.624 0 0 0 0-.884"/>
</svg>
